X:2
T:Forest Flower
C:Charles Lloyd
L:1/8
M:C
I:linebreak $
K:A
"NC" z2 z B,/A,/ G,A,CE ||"A" B8- | B4 G E2 C/G/ ||[K:G]"G" F8- | F3 D/C/ B,CEG ||$
[K:C]"C" d8- | d4 B G2 E/B/ ||[K:Bb]"Bb" A8- | A6 A2 ||[K:A]"A" G3 ^d- d4- ||
[K:C]"A" d4"Dø" (3=d2"G7" ^G2 d2 ||$[K:C]"C" G8- | G3 D/C/ B,CEG |"C7" D3 D2 D2 D |
"Fo" D3 D2 D2 D ||1[K:Bb]"Bb" D8 :|2$"Bb" D8- | D3 D/C/ =B,C=EG ||[K:Eb]"Cm" D3 D2 D2 D |
"Bb7" D3 D2 D2 D |"Eb" D8- |$"Eb" D3 F/E/ DEGB |"Bb7" D3 D2 D2 D |"Ab7" D3 D2 D2 D ||
[K:Gb]"Gb" D8- |$ D6 z D/F/ ||[K:C]"Gbm" _A6 z E/_A/ |"Am" B6 z G/B/ |"Cm" d6 z _B/d/ |"Ebm" f8 |
"C6" e8- | e8 |]

